flaticon/sport/glove.svg

<svg xmlns="http://www.w3.org/2000/svg" width="32" height="32" viewBox="0 0 24 24">
    <path d="M 18 9.199219 L 17.601562 9.199219 L 17.601562 2 C 17.601562 0.898438 16.703125 0 15.601562 0 C 14.496094 0 13.601562 0.898438 13.601562 2 L 13.601562 4.808594 C 13.265625 4.554688 12.851562 4.398438 12.398438 4.398438 C 11.824219 4.398438 11.308594 4.648438 10.941406 5.039062 C 10.601562 4.421875 9.953125 4 9.199219 4 C 8.21875 4 7.40625 4.710938 7.238281 5.640625 C 6.894531 5.367188 6.46875 5.199219 6 5.199219 C 4.898438 5.199219 4 6.097656 4 7.199219 L 4 21.601562 L 8 21.601562 L 8 24 L 13.601562 24 L 13.601562 21.601562 L 17.601562 21.601562 L 17.601562 13.199219 L 18 13.199219 C 19.101562 13.199219 20 12.304688 20 11.199219 C 20 10.097656 19.101562 9.199219 18 9.199219 Z M 14.398438 6.398438 L 14.398438 2 C 14.398438 1.339844 14.9375 0.800781 15.601562 0.800781 C 16.261719 0.800781 16.800781 1.339844 16.800781 2 L 16.800781 9.199219 L 14.398438 9.199219 Z M 11.199219 10.398438 L 11.199219 6.398438 C 11.199219 5.738281 11.738281 5.199219 12.398438 5.199219 C 13.0625 5.199219 13.601562 5.738281 13.601562 6.398438 L 13.601562 9.199219 C 12.496094 9.199219 11.601562 10.097656 11.601562 11.199219 C 11.601562 11.316406 11.613281 11.433594 11.636719 11.546875 C 11.644531 11.59375 11.652344 11.636719 11.664062 11.679688 C 11.671875 11.703125 11.675781 11.730469 11.683594 11.753906 C 11.648438 11.730469 11.617188 11.699219 11.585938 11.671875 C 11.566406 11.652344 11.542969 11.632812 11.523438 11.613281 C 11.488281 11.574219 11.457031 11.53125 11.425781 11.488281 C 11.414062 11.472656 11.402344 11.453125 11.394531 11.4375 C 11.328125 11.335938 11.277344 11.222656 11.242188 11.097656 L 11.230469 11.039062 C 11.210938 10.960938 11.199219 10.882812 11.199219 10.800781 Z M 8 7.199219 L 8 6 C 8 5.339844 8.539062 4.800781 9.199219 4.800781 C 9.863281 4.800781 10.398438 5.339844 10.398438 6 L 10.398438 10.398438 C 10.398438 10.589844 10.351562 10.765625 10.273438 10.921875 L 10.230469 10.996094 C 10.121094 11.183594 9.96875 11.332031 9.792969 11.4375 C 9.789062 11.4375 9.789062 11.4375 9.789062 11.4375 C 9.707031 11.484375 9.621094 11.519531 9.535156 11.546875 C 9.519531 11.550781 9.503906 11.554688 9.488281 11.558594 C 9.394531 11.585938 9.296875 11.601562 9.199219 11.601562 C 9.101562 11.601562 9.003906 11.585938 8.910156 11.558594 C 8.894531 11.558594 8.878906 11.550781 8.867188 11.546875 C 8.777344 11.519531 8.691406 11.484375 8.613281 11.4375 C 8.609375 11.4375 8.609375 11.4375 8.609375 11.4375 C 8.429688 11.332031 8.277344 11.183594 8.167969 10.996094 L 8.125 10.921875 C 8.046875 10.765625 8 10.589844 8 10.398438 Z M 4.800781 7.199219 C 4.800781 6.539062 5.339844 6 6 6 C 6.660156 6 7.199219 6.539062 7.199219 7.199219 L 7.199219 11.601562 C 7.199219 12.261719 6.660156 12.800781 6 12.800781 C 5.339844 12.800781 4.800781 12.261719 4.800781 11.601562 Z M 12.800781 23.199219 L 8.800781 23.199219 L 8.800781 21.601562 L 12.800781 21.601562 Z M 16.800781 20.800781 L 4.800781 20.800781 L 4.800781 20 L 16.800781 20 Z M 16.800781 19.199219 L 4.800781 19.199219 L 4.800781 13.199219 C 4.816406 13.210938 4.832031 13.21875 4.847656 13.230469 C 4.882812 13.253906 4.914062 13.273438 4.949219 13.292969 C 5.019531 13.335938 5.089844 13.375 5.160156 13.410156 C 5.199219 13.425781 5.238281 13.445312 5.277344 13.460938 C 5.355469 13.488281 5.433594 13.511719 5.515625 13.535156 C 5.554688 13.542969 5.589844 13.554688 5.628906 13.5625 C 5.75 13.585938 5.871094 13.601562 6 13.601562 C 6.128906 13.601562 6.257812 13.585938 6.382812 13.5625 C 6.421875 13.554688 6.460938 13.539062 6.5 13.527344 C 6.582031 13.507812 6.664062 13.484375 6.738281 13.453125 C 6.785156 13.4375 6.824219 13.414062 6.867188 13.394531 C 6.9375 13.359375 7.003906 13.328125 7.066406 13.285156 C 7.109375 13.257812 7.148438 13.230469 7.1875 13.199219 C 7.246094 13.15625 7.300781 13.113281 7.355469 13.0625 C 7.390625 13.027344 7.425781 12.992188 7.460938 12.957031 C 7.511719 12.902344 7.554688 12.847656 7.597656 12.789062 C 7.628906 12.75 7.65625 12.710938 7.683594 12.667969 C 7.726562 12.605469 7.761719 12.539062 7.792969 12.46875 C 7.8125 12.425781 7.835938 12.386719 7.855469 12.34375 C 7.886719 12.261719 7.910156 12.179688 7.929688 12.097656 C 7.941406 12.058594 7.953125 12.023438 7.960938 11.984375 C 7.960938 11.976562 7.964844 11.972656 7.96875 11.964844 C 7.972656 11.96875 7.980469 11.972656 7.988281 11.976562 C 8.054688 12.03125 8.128906 12.078125 8.203125 12.125 C 8.234375 12.140625 8.265625 12.15625 8.296875 12.171875 C 8.363281 12.207031 8.433594 12.242188 8.503906 12.269531 C 8.558594 12.289062 8.609375 12.300781 8.664062 12.316406 C 8.722656 12.332031 8.777344 12.351562 8.835938 12.363281 C 8.957031 12.386719 9.078125 12.398438 9.199219 12.398438 C 9.773438 12.398438 10.289062 12.152344 10.65625 11.761719 C 10.664062 11.777344 10.671875 11.789062 10.679688 11.804688 C 10.714844 11.863281 10.75 11.921875 10.789062 11.976562 C 10.820312 12.019531 10.855469 12.054688 10.886719 12.09375 C 10.945312 12.164062 11.007812 12.226562 11.078125 12.289062 C 11.121094 12.328125 11.167969 12.367188 11.21875 12.40625 C 11.257812 12.433594 11.296875 12.460938 11.339844 12.488281 C 11.417969 12.539062 11.5 12.585938 11.585938 12.621094 C 11.613281 12.636719 11.644531 12.648438 11.675781 12.660156 C 11.761719 12.695312 11.851562 12.722656 11.945312 12.742188 C 11.980469 12.75 12.011719 12.757812 12.046875 12.765625 C 12.160156 12.785156 12.277344 12.800781 12.398438 12.800781 C 12.402344 12.800781 12.40625 12.800781 12.414062 12.800781 C 12.484375 12.851562 12.558594 12.898438 12.636719 12.941406 C 12.664062 12.957031 12.691406 12.972656 12.71875 12.988281 C 12.785156 13.019531 12.851562 13.046875 12.921875 13.074219 C 12.972656 13.09375 13.027344 13.109375 13.085938 13.125 C 13.136719 13.140625 13.1875 13.15625 13.242188 13.164062 C 13.359375 13.1875 13.480469 13.199219 13.601562 13.199219 L 16.800781 13.199219 Z M 18 12.398438 L 13.601562 12.398438 C 13.523438 12.398438 13.453125 12.390625 13.378906 12.378906 C 13.3125 12.363281 13.246094 12.34375 13.179688 12.320312 C 13.046875 12.269531 12.917969 12.191406 12.808594 12.089844 L 12.804688 12.089844 C 12.609375 11.914062 12.480469 11.695312 12.429688 11.453125 C 12.425781 11.453125 12.425781 11.449219 12.425781 11.449219 C 12.410156 11.367188 12.398438 11.285156 12.398438 11.199219 C 12.398438 10.539062 12.9375 10 13.601562 10 L 18 10 C 18.660156 10 19.199219 10.539062 19.199219 11.199219 C 19.199219 11.863281 18.660156 12.398438 18 12.398438 Z M 18 12.398438"/>
    <path d="M 8.519531 14.113281 C 8.351562 14.042969 8.15625 14.078125 8.023438 14.210938 L 6.515625 15.71875 C 6.359375 15.875 6.359375 16.125 6.515625 16.28125 C 6.671875 16.4375 6.925781 16.4375 7.082031 16.28125 L 8 15.367188 L 8 18 C 8 18.222656 8.179688 18.398438 8.398438 18.398438 C 8.621094 18.398438 8.800781 18.222656 8.800781 18 L 8.800781 14.53125 C 8.800781 14.347656 8.691406 14.183594 8.519531 14.113281 Z M 8.519531 14.113281"/>
</svg>

<svg xmlns="http://www.w3.org/2000/svg" width="32" height="32" viewBox="0 0 24 24">
    <path d="M18 9.2h-.398V2c0-1.102-.899-2-2-2-1.106 0-2 .898-2 2v2.809a1.988 1.988 0 0 0-1.204-.41c-.574 0-1.09.25-1.457.64A1.987 1.987 0 0 0 9.2 4c-.98 0-1.793.71-1.96 1.64A1.979 1.979 0 0 0 6 5.2c-1.102 0-2 .898-2 2v14.402h4V24h5.602v-2.398h4v-8.403H18c1.102 0 2-.894 2-2 0-1.101-.898-2-2-2zm-3.602-2.802V2A1.202 1.202 0 0 1 16.8 2v7.2h-2.402zm-3.199 4v-4a1.202 1.202 0 0 1 2.403 0V9.2c-1.106 0-2 .899-2 2 0 .117.011.235.035.348.008.047.015.09.027.133.008.023.012.05.02.074-.036-.024-.067-.055-.098-.082l-.063-.059a1.53 1.53 0 0 1-.128-.175 1.22 1.22 0 0 1-.153-.34l-.012-.059a.972.972 0 0 1-.03-.238zM8 7.2V6a1.2 1.2 0 1 1 2.398 0v4.398c0 .192-.046.368-.125.524l-.043.074c-.109.188-.261.336-.437.441h-.004a1.311 1.311 0 0 1-.254.11l-.047.012a1.036 1.036 0 0 1-.289.043c-.097 0-.195-.016-.289-.043-.015 0-.031-.008-.043-.012a1.133 1.133 0 0 1-.254-.11H8.61a1.226 1.226 0 0 1-.441-.44l-.043-.075A1.162 1.162 0 0 1 8 10.398zm-3.2 0C4.8 6.54 5.34 6 6 6c.66 0 1.2.54 1.2 1.2v4.402c0 .66-.54 1.199-1.2 1.199-.66 0-1.2-.54-1.2-1.2zm8 16h-4v-1.597h4zm4-2.398h-12V20h12zm0-1.602h-12v-6c.016.012.032.02.048.031a2.843 2.843 0 0 0 .313.18c.038.016.077.035.116.05.078.028.157.052.239.075.039.008.074.02.113.027.121.024.242.04.371.04s.258-.016.383-.04c.039-.007.078-.023.117-.035.082-.02.164-.043.238-.074.047-.015.086-.039.13-.058.07-.036.136-.067.198-.11a1.35 1.35 0 0 0 .122-.086c.058-.043.113-.086.167-.136l.106-.106c.05-.055.094-.11.137-.168a1.35 1.35 0 0 0 .086-.121 1.23 1.23 0 0 0 .109-.2c.02-.042.043-.081.062-.124.032-.082.055-.164.075-.246.011-.04.023-.075.03-.114 0-.007.005-.011.009-.02.004.005.011.009.02.013.066.054.14.101.214.148l.094.047c.066.035.137.07.207.098.055.02.105.03.16.046.059.016.113.036.172.047a1.994 1.994 0 0 0 1.82-.602l.024.044c.035.058.07.117.11.172.03.043.065.078.097.117a2.233 2.233 0 0 0 .332.313c.039.027.078.054.12.081.079.051.161.098.247.133a1.54 1.54 0 0 0 .36.121l.1.024c.114.02.231.035.352.035h.016c.07.05.145.097.223.14l.082.047c.066.032.133.059.203.086.05.02.105.035.164.051a1.838 1.838 0 0 0 .516.074H16.8zm1.2-6.8h-4.398c-.079 0-.149-.008-.223-.02a1.156 1.156 0 0 1-.57-.29h-.004a1.18 1.18 0 0 1-.375-.636c-.004 0-.004-.004-.004-.004A1.203 1.203 0 0 1 13.602 10l4.398.001a1.2 1.2 0 1 1 0 2.398zm0 0"/>
    <path d="M8.52 14.113a.452.452 0 0 0-.497.098l-1.507 1.508a.396.396 0 0 0 0 .562.4.4 0 0 0 .566 0L8 15.367V18c0 .223.18.398.398.398A.398.398 0 0 0 8.801 18v-3.469a.45.45 0 0 0-.281-.418zm0 0"/>
</svg>
